images/benefits-2.svg

<svg width="57" height="57" fill="none" xmlns="http://www.w3.org/2000/svg"><path d="M28.75 55C43.248 55 55 43.248 55 28.75S43.248 2.5 28.75 2.5 2.5 14.252 2.5 28.75 14.252 55 28.75 55z" fill="#0CC" stroke="#173753" stroke-width="3.402" stroke-linecap="round" stroke-linejoin="round"/><path d="M28.875 47.25c10.148 0 18.375-8.227 18.375-18.375S39.023 10.5 28.875 10.5 10.5 18.727 10.5 28.875 18.727 47.25 28.875 47.25z" fill="#E5F9F9"/><path d="M23.1 29.925c2 0 3.475-1.325 3.475-3.3v-3.15c0-1.975-1.475-3.3-3.475-3.3s-3.475 1.325-3.475 3.3v3.15c0 1.975 1.475 3.3 3.475 3.3zm.95 7.425l10.5-14.925-1.95-1.4L22.125 35.95l1.925 1.4zm-.95-9.475c-.725 0-1.25-.575-1.25-1.3v-3.05c0-.725.525-1.275 1.25-1.275s1.275.575 1.275 1.275v3.05c0 .725-.55 1.3-1.275 1.3zm10.45 10.45c2 0 3.475-1.325 3.475-3.3v-3.15c0-1.975-1.475-3.3-3.475-3.3s-3.45 1.325-3.45 3.3v3.15c0 1.975 1.45 3.3 3.45 3.3zm0-2.05c-.725 0-1.225-.575-1.225-1.3v-3.05c0-.725.5-1.275 1.225-1.275.725 0 1.275.575 1.275 1.275v3.05c0 .725-.55 1.3-1.275 1.3z" fill="#173753"/></svg>

<svg width="57" height="57" viewBox="0 0 57 57" fill="none" xmlns="http://www.w3.org/2000/svg">
<path d="M28.75 55C43.2475 55 55 43.2475 55 28.75C55 14.2525 43.2475 2.5 28.75 2.5C14.2525 2.5 2.5 14.2525 2.5 28.75C2.5 43.2475 14.2525 55 28.75 55Z" fill="#00CCCC" stroke="#173753" stroke-width="3.402" stroke-linecap="round" stroke-linejoin="round"/>
<path d="M28.875 47.25C39.0232 47.25 47.25 39.0232 47.25 28.875C47.25 18.7268 39.0232 10.5 28.875 10.5C18.7268 10.5 10.5 18.7268 10.5 28.875C10.5 39.0232 18.7268 47.25 28.875 47.25Z" fill="#E5F9F9"/>
<path d="M23.1 29.925C25.1 29.925 26.575 28.6 26.575 26.625V23.475C26.575 21.5 25.1 20.175 23.1 20.175C21.1 20.175 19.625 21.5 19.625 23.475V26.625C19.625 28.6 21.1 29.925 23.1 29.925ZM24.05 37.35L34.55 22.425L32.6 21.025L22.125 35.95L24.05 37.35ZM23.1 27.875C22.375 27.875 21.85 27.3 21.85 26.575V23.525C21.85 22.8 22.375 22.25 23.1 22.25C23.825 22.25 24.375 22.825 24.375 23.525V26.575C24.375 27.3 23.825 27.875 23.1 27.875ZM33.55 38.325C35.55 38.325 37.025 37 37.025 35.025V31.875C37.025 29.9 35.55 28.575 33.55 28.575C31.55 28.575 30.1 29.9 30.1 31.875V35.025C30.1 37 31.55 38.325 33.55 38.325ZM33.55 36.275C32.825 36.275 32.325 35.7 32.325 34.975V31.925C32.325 31.2 32.825 30.65 33.55 30.65C34.275 30.65 34.825 31.225 34.825 31.925V34.975C34.825 35.7 34.275 36.275 33.55 36.275Z" fill="#173753"/>
</svg>
